images/icons/dark/contact.svg

<svg height="80" viewBox="0 0 80 80" width="80" xmlns="http://www.w3.org/2000/svg" xmlns:xlink="http://www.w3.org/1999/xlink"><defs><path id="a" d="m5.9351823 53.906874h-5.4351823v-38.5583892h48.4848485v38.5583892h-31.7494515l-11.3002147 9.6769107zm38.0496662-33.5583892h-38.4848485v28.5583892h5.4351823v3.8123716l4.4518979-3.8123716h28.5977683zm-11.969697-14.8484848v3.89037048h-5v-8.89037048h48.4848485v38.559241h-5.4351823v9.6756126l-11.3001261-9.6756126h-4.1890527v-5h6.0371923l4.4519865 3.811966v-3.811966h5.4351823v-28.559241zm-15.7580044 27.1969697c1.4644423 0 2.6519438 1.1875015 2.6519438 2.6519438 0 1.4644424-1.1875015 2.6510865-2.6519438 2.6510865-1.463585 0-2.6510865-1.1866441-2.6510865-2.6510865 0-1.4644423 1.1875015-2.6519438 2.6510865-2.6519438zm9.5458832 0c1.4646791 0 2.6515152 1.1875015 2.6515152 2.6519438 0 1.4644424-1.1868361 2.6510865-2.6515152 2.6510865s-2.6515151-1.1866441-2.6515151-2.6510865c0-1.4644423 1.186836-2.6519438 2.6515151-2.6519438zm8.4844198 0c1.4644423 0 2.6519438 1.1875015 2.6519438 2.6519438 0 1.4644424-1.1875015 2.6510865-2.6519438 2.6510865s-2.6510865-1.1866441-2.6510865-2.6510865c0-1.4644423 1.1866442-2.6519438 2.6510865-2.6519438z"/><filter id="b" height="103.2%" width="105.3%" x="-1.3%" y="-1.6%"><feOffset dx="2" dy="0" in="SourceAlpha" result="shadowOffsetOuter1"/><feColorMatrix in="shadowOffsetOuter1" type="matrix" values="0 0 0 0 0.0901960784   0 0 0 0 0.882352941   0 0 0 0 0.996078431  0 0 0 1 0"/></filter><filter id="c" height="103.2%" width="105.3%" x="-1.3%" y="-1.6%"><feOffset dx="2" dy="0" in="SourceAlpha" result="shadowOffsetInner1"/><feComposite in="shadowOffsetInner1" in2="SourceAlpha" k2="-1" k3="1" operator="arithmetic" result="shadowInnerInner1"/><feColorMatrix in="shadowInnerInner1" type="matrix" values="0 0 0 0 1   0 0 0 0 0.152941176   0 0 0 0 0.321568627  0 0 0 1 0"/></filter><path id="d" d="m7.9351823 53.906874h-5.4351823v-38.5583892h48.4848485v38.5583892h-31.7494515l-11.3002147 9.6769107zm38.0496662-33.5583892h-38.4848485v28.5583892h5.4351823v3.8123716l4.4518979-3.8123716h28.5977683zm-11.969697-14.8484848v3.89037048h-5v-8.89037048h48.4848485v38.559241h-5.4351823v9.6756126l-11.3001261-9.6756126h-4.1890527v-5h6.0371923l4.4519865 3.811966v-3.811966h5.4351823v-28.559241zm-15.7580044 27.1969697c1.4644423 0 2.6519438 1.1875015 2.6519438 2.6519438 0 1.4644424-1.1875015 2.6510865-2.6519438 2.6510865-1.463585 0-2.6510865-1.1866441-2.6510865-2.6510865 0-1.4644423 1.1875015-2.6519438 2.6510865-2.6519438zm9.5458832 0c1.4646791 0 2.6515152 1.1875015 2.6515152 2.6519438 0 1.4644424-1.1868361 2.6510865-2.6515152 2.6510865s-2.6515151-1.1866441-2.6515151-2.6510865c0-1.4644423 1.186836-2.6519438 2.6515151-2.6519438zm8.4844198 0c1.4644423 0 2.6519438 1.1875015 2.6519438 2.6519438 0 1.4644424-1.1875015 2.6510865-2.6519438 2.6510865s-2.6510865-1.1866441-2.6510865-2.6510865c0-1.4644423 1.1866442-2.6519438 2.6510865-2.6519438z"/><filter id="e" height="101.6%" width="101.3%" x="-.7%" y="-.8%"><feOffset dx="1" dy="0" in="SourceAlpha" result="shadowOffsetInner1"/><feComposite in="shadowOffsetInner1" in2="SourceAlpha" k2="-1" k3="1" operator="arithmetic" result="shadowInnerInner1"/><feColorMatrix in="shadowInnerInner1" type="matrix" values="0 0 0 0 1   0 0 0 0 0.152941176   0 0 0 0 0.321568627  0 0 0 0.5 0"/></filter><mask id="f" fill="#fff"><use fill="#fff" fill-rule="evenodd" xlink:href="#a"/></mask></defs><g fill="none" transform="translate(2 8)"><use fill="#000" filter="url(#b)" xlink:href="#a"/><use fill="#ff2752" fill-rule="evenodd" xlink:href="#a"/><g fill="#000"><use filter="url(#c)" xlink:href="#a"/><g mask="url(#f)"><use fill-rule="evenodd" xlink:href="#d"/><use filter="url(#e)" xlink:href="#d"/></g></g></g></svg>

<svg height="80" width="80" xmlns="http://www.w3.org/2000/svg" xmlns:xlink="http://www.w3.org/1999/xlink"><defs><path id="a" d="M5.935 53.907H.5V15.348h48.485v38.559h-31.75l-11.3 9.677zm38.05-33.559H5.5v28.559h5.435v3.812l4.452-3.812h28.598zM32.015 5.5v3.89h-5V.5H75.5v38.56h-5.435v9.675l-11.3-9.676h-4.19v-5h6.038l4.452 3.812V34.06H70.5V5.5zM16.257 32.697a2.652 2.652 0 1 1 0 5.304 2.652 2.652 0 0 1 0-5.304zm9.546 0a2.652 2.652 0 1 1 0 5.303 2.652 2.652 0 0 1 0-5.303zm8.484 0a2.652 2.652 0 1 1 0 5.304 2.652 2.652 0 0 1 0-5.304z"/><filter id="b" height="103.2%" width="105.3%" x="-1.3%" y="-1.6%"><feOffset dx="2" in="SourceAlpha" result="shadowOffsetOuter1"/><feColorMatrix in="shadowOffsetOuter1" values="0 0 0 0 0.0901960784 0 0 0 0 0.882352941 0 0 0 0 0.996078431 0 0 0 1 0"/></filter><filter id="c" height="103.2%" width="105.3%" x="-1.3%" y="-1.6%"><feOffset dx="2" in="SourceAlpha" result="shadowOffsetInner1"/><feComposite in="shadowOffsetInner1" in2="SourceAlpha" k2="-1" k3="1" operator="arithmetic" result="shadowInnerInner1"/><feColorMatrix in="shadowInnerInner1" values="0 0 0 0 1 0 0 0 0 0.152941176 0 0 0 0 0.321568627 0 0 0 1 0"/></filter><path id="e" d="M7.935 53.907H2.5V15.348h48.485v38.559h-31.75l-11.3 9.677zm38.05-33.559H7.5v28.559h5.435v3.812l4.452-3.812h28.598zM34.015 5.5v3.89h-5V.5H77.5v38.56h-5.435v9.675l-11.3-9.676h-4.19v-5h6.038l4.452 3.812V34.06H72.5V5.5zM18.257 32.697a2.652 2.652 0 1 1 0 5.304 2.652 2.652 0 0 1 0-5.304zm9.546 0a2.652 2.652 0 1 1 0 5.303 2.652 2.652 0 0 1 0-5.303zm8.484 0a2.652 2.652 0 1 1 0 5.304 2.652 2.652 0 0 1 0-5.304z"/><filter id="f" height="101.6%" width="101.3%" x="-.7%" y="-.8%"><feOffset dx="1" in="SourceAlpha" result="shadowOffsetInner1"/><feComposite in="shadowOffsetInner1" in2="SourceAlpha" k2="-1" k3="1" operator="arithmetic" result="shadowInnerInner1"/><feColorMatrix in="shadowInnerInner1" values="0 0 0 0 1 0 0 0 0 0.152941176 0 0 0 0 0.321568627 0 0 0 0.5 0"/></filter><mask id="d" fill="#fff"><use fill-rule="evenodd" xlink:href="#a"/></mask></defs><g fill="none" transform="translate(2 8)"><use fill="#000" filter="url(#b)" xlink:href="#a"/><use fill="#ff2752" fill-rule="evenodd" xlink:href="#a"/><g fill="#000"><use filter="url(#c)" xlink:href="#a"/><g mask="url(#d)"><use fill-rule="evenodd" xlink:href="#e"/><use filter="url(#f)" xlink:href="#e"/></g></g></g></svg>
